X:4597
T:New Custom House, The
O:england
R:reel
D:Noel Hill & Tony McMahon: \'I gCnoc na Gra\'i
M:C|
K:Dmix
A2DE FGAB|cAGE DEFG|A2DE FGAB|cGeG dcAG|
A2DE FGAB|cAGE DEFG|ADdD FGAB|cAGE AD~D2:|
|:Add^c d2cd|ed^cd efge|Add^c d2cd|eaag ed^cd|
Add^c d2cd|ed^cd efgb|a2ba ge^cd|eaag ed^cd:|


